X: 5
T: Pollonesse #5
M: 3/4
L: 1/16
K: D
Q:120
g2fed8|cedcB8|ABcde4G4|F6E2D4|d4g4b4|d2Bd c2AcB4|
d4g4b4|d2Bd c2AcB4|d2ef g2d2 B2G2| A2GF G8::B2G2 G2B2 B2d2|
A2F2 D2F2 A2d2|e2f2 g2f2 e2d2|c2B2 A2G2 F2E2|g4d'4g'4|a2fa g2eg f4|
g4d'4g'4|a2fa g2eg f4|g2a2 b2B2 c2d2|e2dc d8:|

